X: 5
T: The Stack Of Barley
R: hornpipe
M: 4/4
L: 1/8
K: Amaj
ag|fcfe c2 ec|(3B/c/B Ac BdcB|AGAB cAce|f/g/a ec B2 ce|f2 {a}fe ceec|BAFA BdcB|AGAB ceBd|(3cdc A2 Agag|~f3e ceec|BAFA BdcB|AGAB cAce|f/g/a ec B2 ce|f2 {a}fe ceec|BAFA BdcB|AGAB ceBd|(3cdc A2 A3B||cAce a2 ga|baga (3fgf e2| eaga fece| f/g/a ec B3 c|cefg a2 gf|ecBA BdcB|AGAB ceBd|1 (3cdc A2 A3B:|2 (3cdc A2 Agag||


Tune 2224	Setting 15591

